X:1
T:Little Sadie
M:2/4
L:1/8
K:G
 z2 B2| B2 B2| d3 B| BA GG| E2 z E| F2 FF| AA AA|F-E D2| B,2 z B,|\
 D2 D2| D2 DD| B,2 B,2| D2 z B| BB B2|B-A G2| EE D2| E4|
